sources/design/Outline/d.svg

<svg:svg xmlns:cc="http://creativecommons.org/ns#" xmlns:dc="http://purl.org/dc/elements/1.1/" xmlns:inkscape="http://www.inkscape.org/namespaces/inkscape" xmlns:rdf="http://www.w3.org/1999/02/22-rdf-syntax-ns#" xmlns:sodipodi="http://sodipodi.sourceforge.net/DTD/sodipodi-0.dtd" xmlns:svg="http://www.w3.org/2000/svg" xml:space="preserve" width="1000" height="1000" version="1.1" style="clip-rule:evenodd;fill-rule:evenodd;image-rendering:optimizeQuality;shape-rendering:geometricPrecision;text-rendering:geometricPrecision" viewBox="0 0 1000 1000" id="svg10" sodipodi:docname="d.svg" inkscape:version="1.0.2 (e86c870879, 2021-01-15)"><svg:metadata id="metadata14"><rdf:RDF><cc:Work rdf:about=""><dc:format>image/svg+xml</dc:format><dc:type rdf:resource="http://purl.org/dc/dcmitype/StillImage" /><dc:title /></cc:Work></rdf:RDF></svg:metadata><sodipodi:namedview pagecolor="#ffffff" bordercolor="#666666" borderopacity="1" objecttolerance="10" gridtolerance="10" guidetolerance="10" inkscape:pageopacity="0" inkscape:pageshadow="2" inkscape:window-width="1920" inkscape:window-height="1127" id="namedview12" showgrid="false" inkscape:zoom="0.84890884" inkscape:cx="169.61082" inkscape:cy="375.97509" inkscape:window-x="0" inkscape:window-y="0" inkscape:window-maximized="1" inkscape:current-layer="svg10" showguides="true" inkscape:guide-bbox="true" inkscape:document-rotation="0" inkscape:pagecheckerboard="0"><sodipodi:guide position="0,1000" orientation="0,1" id="guide16" inkscape:label="" inkscape:locked="true" inkscape:color="rgb(0,0,255)" /><sodipodi:guide position="1763.3122,2036.1693" orientation="1000,0" id="guide18" /><sodipodi:guide position="0,200" orientation="0,1" id="guide20" inkscape:label="base" inkscape:locked="true" inkscape:color="rgb(0,0,255)" /><inkscape:grid type="xygrid" id="grid24" originx="-473.37552" originy="-489.69235" /><sodipodi:guide position="0,0" orientation="0,1" id="guide34" inkscape:label="bottom" inkscape:locked="true" inkscape:color="rgb(0,0,255)" /><sodipodi:guide position="225.05109,1693.3186" orientation="0,1" id="guide44" inkscape:label="" inkscape:locked="false" inkscape:color="rgb(0,0,255)" /><sodipodi:guide position="0,900" orientation="0,1" id="guide46" inkscape:label="" inkscape:locked="true" inkscape:color="rgb(0,0,255)" /><sodipodi:guide position="476.49986,484.80653" orientation="1,0" id="guide841" inkscape:label="width" />    <sodipodi:guide position="-15.635881,798.82971" orientation="0,-1" id="guide851" /><sodipodi:guide position="402.87011,499.35732" orientation="0,-1" id="guide852" /></sodipodi:namedview>
 <svg:defs id="defs4"><inkscape:path-effect effect="fillet_chamfer" id="path-effect853" is_visible="true" lpeversion="1" satellites_param="F,0,0,1,0,0,0,1 @ F,0,0,1,0,0,0,1 @ F,0,0,1,0,0,0,1 @ F,0,0,1,0,0,0,1 @ F,0,0,1,0,0,0,1 @ F,0,0,1,0,0,0,1 @ F,0,0,1,0,0,0,1 @ F,0,0,1,0,0,0,1 @ F,0,0,1,0,0,0,1 @ F,0,0,1,0,0,0,1 @ F,0,0,1,0,0,0,1 @ F,0,0,1,0,0,0,1 | F,0,0,1,0,0,0,1 @ F,0,0,1,0,0,0,1 @ F,0,0,1,0,0,0,1 @ F,0,0,1,0,0,0,1 @ F,0,0,1,0,0,0,1 @ F,0,0,1,0,0,0,1 @ F,0,0,1,0,0,0,1 @ F,0,0,1,0,0,0,1 @ F,0,0,1,0,0,0,1 @ F,0,0,1,0,0,0,1 @ F,0,0,1,0,19.509087,0,1 @ F,0,0,1,0,39.002274,0,1 @ F,0,0,1,0,0,0,1 @ F,0,0,1,0,0,0,1 @ F,0,0,1,0,0,0,1 @ F,0,0,1,0,10.443093,0,1 @ F,0,0,1,0,21.60229,0,1 @ F,0,0,1,0,0,0,1 @ F,0,0,1,0,0,0,1 @ F,0,0,1,0,0,0,1" unit="px" method="auto" mode="F" radius="0" chamfer_steps="1" flexible="false" use_knot_distance="true" apply_no_radius="true" apply_with_radius="true" only_selected="true" hide_knots="false" /><inkscape:path-effect effect="spiro" id="path-effect928" is_visible="true" lpeversion="1" /><inkscape:path-effect effect="spiro" id="path-effect921" is_visible="true" lpeversion="1" /><inkscape:path-effect effect="spiro" id="path-effect917" is_visible="true" lpeversion="1" /><inkscape:path-effect effect="spiro" id="path-effect849" is_visible="true" lpeversion="1" /><inkscape:path-effect effect="spiro" id="path-effect851" is_visible="true" lpeversion="1" />
  <svg:style type="text/css" id="style2">
   
    .fil0 {fill:#EF7F1A;fill-rule:nonzero}
   
  </svg:style>
 <inkscape:path-effect effect="spiro" id="path-effect1214" is_visible="true" lpeversion="1" /><inkscape:path-effect effect="spiro" id="path-effect1195" is_visible="true" lpeversion="1" /><inkscape:path-effect effect="spiro" id="path-effect992" is_visible="true" lpeversion="1" /><inkscape:path-effect effect="spiro" id="path-effect1060" is_visible="true" lpeversion="1" /><inkscape:path-effect effect="spiro" id="path-effect1047" is_visible="true" lpeversion="1" /><inkscape:path-effect effect="spiro" id="path-effect1085" is_visible="true" lpeversion="1" /><inkscape:path-effect effect="spiro" id="path-effect1286" is_visible="true" lpeversion="1" /><inkscape:path-effect effect="spiro" id="path-effect885" is_visible="true" lpeversion="1" /><inkscape:path-effect effect="fillet_chamfer" id="path-effect869" is_visible="true" lpeversion="1" satellites_param="F,0,0,1,0,0,0,1 @ F,0,0,1,0,0,0,1 @ F,0,0,1,0,0,0,1 @ F,0,0,1,0,0,0,1 @ F,0,0,1,0,0,0,1 @ F,0,0,1,0,0,0,1 @ F,0,0,1,0,0,0,1 @ F,0,0,1,0,0,0,1 @ F,0,0,1,0,0,0,1 @ F,0,0,1,0,0,0,1 @ F,0,0,1,0,0,0,1 @ F,0,0,1,0,0,0,1 @ F,0,0,1,0,0,0,1 @ F,0,0,1,0,0,0,1 @ F,0,0,1,0,0,0,1 @ F,0,0,1,0,0,0,1 @ F,0,0,1,0,0,0,1 @ F,0,0,1,0,0,0,1 @ F,0,0,1,0,0,0,1 @ F,0,0,1,0,0,0,1 @ F,0,0,1,0,0,0,1 @ F,0,0,1,0,0,0,1 @ F,0,0,1,0,0,0,1 @ F,0,0,1,0,0,0,1 @ F,0,0,1,0,0,0,1 @ F,0,0,1,0,0,0,1 @ F,0,0,1,0,0,0,1 @ F,0,0,1,0,22.447498,0,1 @ F,0,0,1,0,20.05063,0,1 @ F,0,0,1,0,0,0,1 @ F,0,0,1,0,29.624886,0,1 @ F,0,0,1,0,29.624886,0,1 @ F,0,0,1,0,0,0,1" unit="px" method="auto" mode="F" radius="0" chamfer_steps="1" flexible="false" use_knot_distance="true" apply_no_radius="true" apply_with_radius="true" only_selected="true" hide_knots="false" /></svg:defs>
 
<svg:g id="path883"><svg:path style="color:#000000;fill:#1a5fb4;fill-rule:nonzero;stroke-linecap:round;stroke-linejoin:round;-inkscape-stroke:none;paint-order:fill stroke markers" d="M 356.96875,-26.417969 C 344.52831,-26.665548 331.50904,-22.215432999999997 322.32812,-13.138672 C 311.83565,-2.7652304 307.36756,12.489874 308.87109000000004,26.349609 C 315.83236000000005,90.519403 318.46775,155.15452 316.94336000000004,219.6875 C 311.37317,214.71949 305.52733000000006,209.97622 299.37891,205.51367 C 274.50603,187.46084 244.90957000000003,174.29016 212.56641000000002,170.85547 C 177.00867000000002,167.07941 141.82506,175.52267 111.60156000000002,192.01562 C 81.51536900000002,208.43365 56.92273400000002,232.30834000000002 38.167969000000014,259.35937 C -6.35287799999999,323.57426 -16.756114999999987,401.24737000000005 -18.435546999999985,472.56445 C -20.481184999999986,559.43248 -10.245292999999986,650.54412 30.513672000000014,731.92773 C 38.36871700000001,747.61194 47.724845000000016,763.71672 60.224609000000015,778.65039 C 72.78030800000002,793.65089 88.47079400000001,807.3326500000001 107.82617000000002,816.5957 C 127.18004000000002,825.85804 148.17867,829.68162 168.72266000000002,829.0449199999999 C 189.19857000000002,828.4103299999999 208.83263000000002,823.3961999999999 226.74414000000002,815.50586 C 274.01568000000003,794.68191 307.00986,755.6611399999999 331.21484,716.3046899999999 C 332.24381,714.63163 333.18352999999996,712.90734 334.18944999999997,711.2207 C 335.80805999999995,733.3824099999999 337.60504,755.53045 339.75976999999995,777.64648 C 342.93249,810.2112999999999 375.0882199999999,834.25032 407.1132799999999,828.5 L 460.1816399999999,818.9707 C 492.0949799999999,813.24045 513.1759799999999,778.03964 503.9628899999999,747.30859 C 468.03019,627.45201 448.69599,502.57618 446.74805,377.4707 C 444.99887,265.13087 457.24473,152.54129 483.08203,43.195312 C 489.27711,16.97714 469.58629,-12.00679 442.64062,-15.525391 L 362.25195,-26.023437 C 360.51119,-26.250749000000003 358.74596,-26.3826 356.96875,-26.417969000000003 L 356.96875,-26.417969 M 370.01758,35.5 L 421.85742,42.269531 C 401.54587,131.94989 389.99451,223.56122 387.3418,315.4707 C 383.12575,306.92042 378.67352,298.49086 373.78516,290.30469 C 379.64257,205.45675 378.32053,120.1434 370.01758,35.5 M 197.96484,230.00391 C 200.74071,230.05861 203.49949,230.22950999999998 206.23047,230.51953 C 226.1851,232.63862 246.44499,241.23296 264.13477,254.07227 C 281.93543,266.99206 297.59615,284.28248 311.20117,303.84766 C 311.60913,304.43434 311.96153,305.05874 312.36523,305.64844 C 311.94772,310.71333 311.61671,315.78553 311.14648,320.84569999999997 C 310.89964,323.50206 310.57455,326.14322 310.3125,328.79686999999996 C 285.92997,304.19260999999995 252.66643,285.7641 214.67383,285.16601999999995 C 184.64588,284.69330999999994 156.73884,295.54898 134.18945000000002,312.1621099999999 C 111.84094000000002,328.6272399999999 95.22463400000002,350.1399399999999 82.90039100000001,372.64843999999994 C 48.80078000000001,434.9265699999999 45.500253000000015,507.3622899999999 57.640625000000014,573.09375 C 61.88645200000001,596.08188 68.30887800000002,621.03787 82.43554700000001,644.39453 C 96.82620300000002,668.18766 119.25658000000001,689.48515 149.61719,697.74609 C 169.89627,703.26391 190.59389,701.96534 209.35352,696.05273 C 227.98091,690.1818 244.14114,680.00285 257.61133,667.83203 C 284.40504,643.62291 299.77183,612.97446 311.74219,584.80078 C 321.77789,561.1805300000001 330.08963,537.07682 337.24609,512.71875 A 30.003,30.003 0.0 0,0 382.08594,492.95898 L 389.90039,450.07617 C 396.87802,555.24505 415.41791,659.6112499999999 445.40039,760.6640600000001 L 399.22852,768.9550800000001 C 395.85918,733.9842100000001 393.14480000000003,698.9508400000001 391.14648,663.8750000000001 C 389.35085,632.3566900000001 388.11003,600.8061000000001 387.42383,569.2441400000001 A 30.003,30.003 0.0 0,0 328.04687,563.8496100000001 C 319.26494,606.5313600000001 302.93558,647.7552700000001 280.10742,684.8730500000001 C 259.54019999999997,718.3146100000001 233.49668,746.9680200000001 202.55664,760.5976600000001 C 190.92112999999998,765.7233000000001 178.65875,768.7086600000001 166.86327999999997,769.0742200000001 C 155.13588999999996,769.43767 143.4962,767.1501400000001 133.72655999999998,762.4746100000001 C 123.90587999999998,757.7746500000001 114.43942999999997,749.9413900000001 106.23437999999997,740.13867 C 97.973386,730.26913 90.791341,718.29521 84.162109,705.05859 C 49.695475,636.2389 39.63965,555.0518 41.548828,473.97852 C 43.108264,407.75703 53.610759,342.39144 87.476562,293.54492 C 101.61352,273.1544 119.75567,255.9185 140.34375,244.68359 C 158.23818,234.91861 178.53379999999999,229.62130000000002 197.96484,230.00391000000002 L 197.96484,230.00391 M 213.72852,345.15819999999997 C 232.48483,345.45347 253.1131,355.87976999999995 268.5957,371.85742 C 280.45079000000004,384.09157 290.09493000000003,399.67224 298.19922,417.09766 C 289.09913,467.04236000000003 275.94405,515.6199300000001 256.51953000000003,561.33789 C 245.83387000000002,586.4879 233.58164000000002,608.67979 217.38672000000003,623.3125 C 209.36259,630.5626 200.31974000000002,635.99109 191.31836000000004,638.82812 C 182.44921000000005,641.62348 173.04237000000003,641.9394 165.36914000000004,639.8515600000001 C 153.86800000000005,636.7221700000001 141.83700000000005,626.6726100000001 133.77539000000004,613.3437500000001 C 125.44979000000005,599.5784200000002 120.27630000000005,581.8693300000001 116.64258000000004,562.1953100000001 C 106.31613000000004,506.28493000000003 110.22118000000003,447.6846100000001 135.52930000000003,401.4628900000001 C 144.62146000000004,384.85733000000005 156.22595000000004,370.4521400000001 169.77930000000003,360.4668000000001 C 183.13176000000004,350.6294500000001 199.16859000000002,344.9290000000001 213.72852000000003,345.1582000000001 L 213.72852,345.15819999999997" id="path7248" /></svg:g></svg:svg>

<svg:svg xmlns:cc="http://creativecommons.org/ns#" xmlns:dc="http://purl.org/dc/elements/1.1/" xmlns:inkscape="http://www.inkscape.org/namespaces/inkscape" xmlns:rdf="http://www.w3.org/1999/02/22-rdf-syntax-ns#" xmlns:sodipodi="http://sodipodi.sourceforge.net/DTD/sodipodi-0.dtd" xmlns:svg="http://www.w3.org/2000/svg" xml:space="preserve" width="1000" height="1000" version="1.1" style="clip-rule:evenodd;fill-rule:evenodd;image-rendering:optimizeQuality;shape-rendering:geometricPrecision;text-rendering:geometricPrecision" viewBox="0 0 1000 1000" id="svg10" sodipodi:docname="d.svg" inkscape:version="1.0.2 (e86c870879, 2021-01-15)"><svg:metadata id="metadata14"><rdf:RDF><cc:Work rdf:about=""><dc:format>image/svg+xml</dc:format><dc:type rdf:resource="http://purl.org/dc/dcmitype/StillImage" /><dc:title /></cc:Work></rdf:RDF></svg:metadata><sodipodi:namedview pagecolor="#ffffff" bordercolor="#666666" borderopacity="1" objecttolerance="10" gridtolerance="10" guidetolerance="10" inkscape:pageopacity="0" inkscape:pageshadow="2" inkscape:window-width="1920" inkscape:window-height="1127" id="namedview12" showgrid="false" inkscape:zoom="0.84890884" inkscape:cx="169.61082" inkscape:cy="375.97509" inkscape:window-x="0" inkscape:window-y="0" inkscape:window-maximized="1" inkscape:current-layer="svg10" showguides="true" inkscape:guide-bbox="true" inkscape:document-rotation="0" inkscape:pagecheckerboard="0"><sodipodi:guide position="0,1000" orientation="0,1" id="guide16" inkscape:label="" inkscape:locked="true" inkscape:color="rgb(0,0,255)" /><sodipodi:guide position="1763.3122,2036.1693" orientation="1000,0" id="guide18" /><sodipodi:guide position="0,200" orientation="0,1" id="guide20" inkscape:label="base" inkscape:locked="true" inkscape:color="rgb(0,0,255)" /><inkscape:grid type="xygrid" id="grid24" originx="-473.37552" originy="-489.69235" /><sodipodi:guide position="0,0" orientation="0,1" id="guide34" inkscape:label="bottom" inkscape:locked="true" inkscape:color="rgb(0,0,255)" /><sodipodi:guide position="225.05109,1693.3186" orientation="0,1" id="guide44" inkscape:label="" inkscape:locked="false" inkscape:color="rgb(0,0,255)" /><sodipodi:guide position="0,900" orientation="0,1" id="guide46" inkscape:label="" inkscape:locked="true" inkscape:color="rgb(0,0,255)" /><sodipodi:guide position="476.49986,484.80653" orientation="1,0" id="guide841" inkscape:label="width" />    <sodipodi:guide position="-15.635881,798.82971" orientation="0,-1" id="guide851" /><sodipodi:guide position="402.87011,499.35732" orientation="0,-1" id="guide852" /></sodipodi:namedview>
 <svg:defs id="defs4"><inkscape:path-effect effect="fillet_chamfer" id="path-effect853" is_visible="true" lpeversion="1" satellites_param="F,0,0,1,0,0,0,1 @ F,0,0,1,0,0,0,1 @ F,0,0,1,0,0,0,1 @ F,0,0,1,0,0,0,1 @ F,0,0,1,0,0,0,1 @ F,0,0,1,0,0,0,1 @ F,0,0,1,0,0,0,1 @ F,0,0,1,0,0,0,1 @ F,0,0,1,0,0,0,1 @ F,0,0,1,0,0,0,1 @ F,0,0,1,0,0,0,1 @ F,0,0,1,0,0,0,1 | F,0,0,1,0,0,0,1 @ F,0,0,1,0,0,0,1 @ F,0,0,1,0,0,0,1 @ F,0,0,1,0,0,0,1 @ F,0,0,1,0,0,0,1 @ F,0,0,1,0,0,0,1 @ F,0,0,1,0,0,0,1 @ F,0,0,1,0,0,0,1 @ F,0,0,1,0,0,0,1 @ F,0,0,1,0,0,0,1 @ F,0,0,1,0,19.509087,0,1 @ F,0,0,1,0,39.002274,0,1 @ F,0,0,1,0,0,0,1 @ F,0,0,1,0,0,0,1 @ F,0,0,1,0,0,0,1 @ F,0,0,1,0,10.443093,0,1 @ F,0,0,1,0,21.60229,0,1 @ F,0,0,1,0,0,0,1 @ F,0,0,1,0,0,0,1 @ F,0,0,1,0,0,0,1" unit="px" method="auto" mode="F" radius="0" chamfer_steps="1" flexible="false" use_knot_distance="true" apply_no_radius="true" apply_with_radius="true" only_selected="true" hide_knots="false" /><inkscape:path-effect effect="spiro" id="path-effect928" is_visible="true" lpeversion="1" /><inkscape:path-effect effect="spiro" id="path-effect921" is_visible="true" lpeversion="1" /><inkscape:path-effect effect="spiro" id="path-effect917" is_visible="true" lpeversion="1" /><inkscape:path-effect effect="spiro" id="path-effect849" is_visible="true" lpeversion="1" /><inkscape:path-effect effect="spiro" id="path-effect851" is_visible="true" lpeversion="1" />
  <svg:style type="text/css" id="style2">
   
    .fil0 {fill:#EF7F1A;fill-rule:nonzero}
   
  </svg:style>
 <inkscape:path-effect effect="spiro" id="path-effect1214" is_visible="true" lpeversion="1" /><inkscape:path-effect effect="spiro" id="path-effect1195" is_visible="true" lpeversion="1" /><inkscape:path-effect effect="spiro" id="path-effect992" is_visible="true" lpeversion="1" /><inkscape:path-effect effect="spiro" id="path-effect1060" is_visible="true" lpeversion="1" /><inkscape:path-effect effect="spiro" id="path-effect1047" is_visible="true" lpeversion="1" /><inkscape:path-effect effect="spiro" id="path-effect1085" is_visible="true" lpeversion="1" /><inkscape:path-effect effect="spiro" id="path-effect1286" is_visible="true" lpeversion="1" /><inkscape:path-effect effect="spiro" id="path-effect885" is_visible="true" lpeversion="1" /><inkscape:path-effect effect="fillet_chamfer" id="path-effect869" is_visible="true" lpeversion="1" satellites_param="F,0,0,1,0,0,0,1 @ F,0,0,1,0,0,0,1 @ F,0,0,1,0,0,0,1 @ F,0,0,1,0,0,0,1 @ F,0,0,1,0,0,0,1 @ F,0,0,1,0,0,0,1 @ F,0,0,1,0,0,0,1 @ F,0,0,1,0,0,0,1 @ F,0,0,1,0,0,0,1 @ F,0,0,1,0,0,0,1 @ F,0,0,1,0,0,0,1 @ F,0,0,1,0,0,0,1 @ F,0,0,1,0,0,0,1 @ F,0,0,1,0,0,0,1 @ F,0,0,1,0,0,0,1 @ F,0,0,1,0,0,0,1 @ F,0,0,1,0,0,0,1 @ F,0,0,1,0,0,0,1 @ F,0,0,1,0,0,0,1 @ F,0,0,1,0,0,0,1 @ F,0,0,1,0,0,0,1 @ F,0,0,1,0,0,0,1 @ F,0,0,1,0,0,0,1 @ F,0,0,1,0,0,0,1 @ F,0,0,1,0,0,0,1 @ F,0,0,1,0,0,0,1 @ F,0,0,1,0,0,0,1 @ F,0,0,1,0,22.447498,0,1 @ F,0,0,1,0,20.05063,0,1 @ F,0,0,1,0,0,0,1 @ F,0,0,1,0,29.624886,0,1 @ F,0,0,1,0,29.624886,0,1 @ F,0,0,1,0,0,0,1" unit="px" method="auto" mode="F" radius="0" chamfer_steps="1" flexible="false" use_knot_distance="true" apply_no_radius="true" apply_with_radius="true" only_selected="true" hide_knots="false" /></svg:defs>
 
<svg:g id="path883"><svg:path style="color:#000000;fill:#1a5fb4;fill-rule:nonzero;stroke-linecap:round;stroke-linejoin:round;-inkscape-stroke:none" d="m 356.96875,-26.417969 c -12.44044,-0.247579 -25.45971,4.202536 -34.64063,13.279297 -10.49247,10.3734416 -14.96056,25.628546 -13.45703,39.488281 6.96127,64.169794 9.59666,128.804911 8.07227,193.337891 -5.57019,-4.96801 -11.41603,-9.71128 -17.56445,-14.17383 -24.87288,-18.05283 -54.46934,-31.22351 -86.8125,-34.6582 -35.55774,-3.77606 -70.74135,4.6672 -100.96485,21.16015 -30.086191,16.41803 -54.678826,40.29272 -73.433591,67.34375 -44.520847,64.21489 -54.924084,141.888 -56.603516,213.20508 -2.045638,86.86803 8.190254,177.97967 48.949219,259.36328 7.855045,15.68421 17.211173,31.78899 29.710937,46.72266 12.555699,15.0005 28.246185,28.68226 47.601561,37.94531 19.35387,9.26234 40.3525,13.08592 60.89649,12.44922 20.47591,-0.63459 40.10997,-5.64872 58.02148,-13.53906 47.27154,-20.82395 80.26572,-59.84472 104.4707,-99.20117 1.02897,-1.67306 1.96869,-3.39735 2.97461,-5.08399 1.61861,22.16171 3.41559,44.30975 5.57032,66.42578 3.17272,32.56482 35.32845,56.60384 67.35351,50.85352 l 53.06836,-9.5293 c 31.91334,-5.73025 52.99434,-40.93106 43.78125,-71.66211 C 468.03019,627.45201 448.69599,502.57618 446.74805,377.4707 444.99887,265.13087 457.24473,152.54129 483.08203,43.195312 489.27711,16.97714 469.58629,-12.00679 442.64062,-15.525391 l -80.38867,-10.498046 c -1.74076,-0.227312 -3.50599,-0.359163 -5.2832,-0.394532 z M 370.01758,35.5 421.85742,42.269531 C 401.54587,131.94989 389.99451,223.56122 387.3418,315.4707 383.12575,306.92042 378.67352,298.49086 373.78516,290.30469 379.64257,205.45675 378.32053,120.1434 370.01758,35.5 Z M 197.96484,230.00391 c 2.77587,0.0547 5.53465,0.2256 8.26563,0.51562 19.95463,2.11909 40.21452,10.71343 57.9043,23.55274 17.80066,12.91979 33.46138,30.21021 47.0664,49.77539 0.40796,0.58668 0.76036,1.21108 1.16406,1.80078 -0.41751,5.06489 -0.74852,10.13709 -1.21875,15.19726 -0.24684,2.65636 -0.57193,5.29752 -0.83398,7.95117 -24.38253,-24.60426 -57.64607,-43.03277 -95.63867,-43.63085 -30.02795,-0.47271 -57.93499,10.38296 -80.48438,26.99609 -22.34851,16.46513 -38.964816,37.97783 -51.289059,60.48633 -34.099611,62.27813 -37.400138,134.71385 -25.259766,200.44531 4.245827,22.98813 10.668253,47.94412 24.794922,71.30078 14.390656,23.79313 36.821033,45.09062 67.181643,53.35156 20.27908,5.51782 40.9767,4.21925 59.73633,-1.69336 18.62739,-5.87093 34.78762,-16.04988 48.25781,-28.2207 26.79371,-24.20912 42.1605,-54.85757 54.13086,-83.03125 10.0357,-23.62025 18.34744,-47.72396 25.5039,-72.08203 a 30.003,30.003 0 0 0 44.83985,-19.75977 l 7.81445,-42.88281 c 6.97763,105.16888 25.51752,209.53508 55.5,310.58789 l -46.17187,8.29102 c -3.36934,-34.97087 -6.08372,-70.00424 -8.08204,-105.08008 -1.79563,-31.51831 -3.03645,-63.0689 -3.72265,-94.63086 a 30.003,30.003 0 0 0 -59.37696,-5.39453 c -8.78193,42.68175 -25.11129,83.90566 -47.93945,121.02344 -20.56722,33.44156 -46.61074,62.09497 -77.55078,75.72461 -11.63551,5.12564 -23.89789,8.111 -35.69336,8.47656 -11.72739,0.36345 -23.36708,-1.92408 -33.13672,-6.59961 -9.82068,-4.69996 -19.28713,-12.53322 -27.49218,-22.33594 C 97.973386,730.26913 90.791341,718.29521 84.162109,705.05859 49.695475,636.2389 39.63965,555.0518 41.548828,473.97852 43.108264,407.75703 53.610759,342.39144 87.476562,293.54492 101.61352,273.1544 119.75567,255.9185 140.34375,244.68359 c 17.89443,-9.76498 38.19005,-15.06229 57.62109,-14.67968 z m 15.76368,115.15429 c 18.75631,0.29527 39.38458,10.72157 54.86718,26.69922 11.85509,12.23415 21.49923,27.81482 29.60352,45.24024 -9.10009,49.9447 -22.25517,98.52227 -41.67969,144.24023 -10.68566,25.15001 -22.93789,47.3419 -39.13281,61.97461 -8.02413,7.2501 -17.06698,12.67859 -26.06836,15.51562 -8.86915,2.79536 -18.27599,3.11128 -25.94922,1.02344 -11.50114,-3.12939 -23.53214,-13.17895 -31.59375,-26.50781 -8.3256,-13.76533 -13.49909,-31.47442 -17.13281,-51.14844 -10.32645,-55.91038 -6.4214,-114.5107 18.88672,-160.73242 9.09216,-16.60556 20.69665,-31.01075 34.25,-40.99609 13.35246,-9.83735 29.38929,-15.5378 43.94922,-15.3086 z" id="path7236" /></svg:g></svg:svg>
